application/favicon.svg

<svg width="512" height="512" fill="none" xmlns="http://www.w3.org/2000/svg"><g clip-path="url(#a)"><rect width="511.998" height="511.998" rx="108.623" fill="#0B1D38"/><g filter="url(#b)"><circle cx="419.52" cy="110" r="32.348" fill="#F41240"/></g><g filter="url(#c)"><path d="M323.396 138.772H96.054V391.5h63.277v-82.222H280.58L335.9 391.5h70.855l-61.004-82.601c18.945-3.031 32.586-10.23 40.922-21.597 8.336-11.367 12.504-29.555 12.504-53.804v-18.946c0-14.398-1.516-25.765-4.168-34.48-2.653-8.714-7.2-16.293-13.641-23.113-6.82-6.441-14.398-10.988-23.492-14.019-9.094-2.653-20.461-4.168-34.48-4.168zm-10.23 114.807H159.331v-59.108h153.835c8.714 0 14.777 1.515 17.808 4.168 3.031 2.652 4.926 7.578 4.926 14.777v21.218c0 7.578-1.895 12.504-4.926 15.156-3.031 2.653-9.094 3.789-17.808 3.789z" fill="#fff"/></g><g filter="url(#d)"><rect x="13.859" y="12.945" width="484.045" height="485.344" rx="96.909" stroke="#000" stroke-opacity=".65" stroke-width="6.39"/></g></g><rect x="6.967" y="6.967" width="498.064" height="498.064" rx="101.656" stroke="#fff" stroke-width="13.934"/><defs><filter id="b" x="378.652" y="77.652" width="81.734" height="81.734" filterUnits="userSpaceOnUse" color-interpolation-filters="sRGB"><feFlood flood-opacity="0" result="BackgroundImageFix"/><feColorMatrix in="SourceAlpha" values="0 0 0 0 0 0 0 0 0 0 0 0 0 0 0 0 0 0 127 0" result="hardAlpha"/><feOffset dy="8.519"/><feGaussianBlur stdDeviation="4.26"/><feComposite in2="hardAlpha" operator="out"/><feColorMatrix values="0 0 0 0 0 0 0 0 0 0 0 0 0 0 0 0 0 0 0.5 0"/><feBlend in2="BackgroundImageFix" result="effect1_dropShadow_923_32857"/><feBlend in="SourceGraphic" in2="effect1_dropShadow_923_32857" result="shape"/></filter><filter id="c" x="87.535" y="138.771" width="327.742" height="269.767" filterUnits="userSpaceOnUse" color-interpolation-filters="sRGB"><feFlood flood-opacity="0" result="BackgroundImageFix"/><feColorMatrix in="SourceAlpha" values="0 0 0 0 0 0 0 0 0 0 0 0 0 0 0 0 0 0 127 0" result="hardAlpha"/><feOffset dy="8.519"/><feGaussianBlur stdDeviation="4.26"/><feComposite in2="hardAlpha" operator="out"/><feColorMatrix values="0 0 0 0 0 0 0 0 0 0 0 0 0 0 0 0 0 0 0.5 0"/><feBlend in2="BackgroundImageFix" result="effect1_dropShadow_923_32857"/><feBlend in="SourceGraphic" in2="effect1_dropShadow_923_32857" result="shape"/></filter><filter id="d" x="-6.375" y="-7.289" width="524.515" height="525.812" filterUnits="userSpaceOnUse" color-interpolation-filters="sRGB"><feFlood flood-opacity="0" result="BackgroundImageFix"/><feBlend in="SourceGraphic" in2="BackgroundImageFix" result="shape"/><feGaussianBlur stdDeviation="8.519" result="effect1_foregroundBlur_923_32857"/></filter><clipPath id="a"><rect width="511.998" height="511.998" rx="108.623" fill="#fff"/></clipPath></defs></svg>

<svg width="512" height="512" viewBox="0 0 512 512" fill="none" xmlns="http://www.w3.org/2000/svg">
<g clip-path="url(#clip0_923_32857)">
<rect width="511.998" height="511.998" rx="108.623" fill="#0B1D38"/>
<g filter="url(#filter0_d_923_32857)">
<circle cx="419.52" cy="110" r="32.3481" fill="#F41240"/>
</g>
<g filter="url(#filter1_d_923_32857)">
<path d="M323.396 138.772H96.0543V391.5H159.331V309.278H280.58L335.9 391.5H406.755L345.751 308.899C364.696 305.868 378.337 298.669 386.673 287.302C395.009 275.935 399.177 257.747 399.177 233.498V214.552C399.177 200.154 397.661 188.787 395.009 180.072C392.356 171.358 387.809 163.779 381.368 156.959C374.548 150.518 366.97 145.971 357.876 142.94C348.782 140.287 337.415 138.772 323.396 138.772ZM313.166 253.579H159.331V194.471H313.166C321.88 194.471 327.943 195.986 330.974 198.639C334.005 201.291 335.9 206.217 335.9 213.416V234.634C335.9 242.212 334.005 247.138 330.974 249.79C327.943 252.443 321.88 253.579 313.166 253.579Z" fill="white"/>
</g>
<g filter="url(#filter2_f_923_32857)">
<rect x="13.8589" y="12.9448" width="484.045" height="485.344" rx="96.9086" stroke="black" stroke-opacity="0.65" stroke-width="6.38958"/>
</g>
</g>
<rect x="6.96719" y="6.96719" width="498.064" height="498.064" rx="101.656" stroke="white" stroke-width="13.9344"/>
<defs>
<filter id="filter0_d_923_32857" x="378.652" y="77.6523" width="81.7342" height="81.7342" filterUnits="userSpaceOnUse" color-interpolation-filters="sRGB">
<feFlood flood-opacity="0" result="BackgroundImageFix"/>
<feColorMatrix in="SourceAlpha" type="matrix" values="0 0 0 0 0 0 0 0 0 0 0 0 0 0 0 0 0 0 127 0" result="hardAlpha"/>
<feOffset dy="8.51943"/>
<feGaussianBlur stdDeviation="4.25972"/>
<feComposite in2="hardAlpha" operator="out"/>
<feColorMatrix type="matrix" values="0 0 0 0 0 0 0 0 0 0 0 0 0 0 0 0 0 0 0.5 0"/>
<feBlend mode="normal" in2="BackgroundImageFix" result="effect1_dropShadow_923_32857"/>
<feBlend mode="normal" in="SourceGraphic" in2="effect1_dropShadow_923_32857" result="shape"/>
</filter>
<filter id="filter1_d_923_32857" x="87.5353" y="138.771" width="327.742" height="269.767" filterUnits="userSpaceOnUse" color-interpolation-filters="sRGB">
<feFlood flood-opacity="0" result="BackgroundImageFix"/>
<feColorMatrix in="SourceAlpha" type="matrix" values="0 0 0 0 0 0 0 0 0 0 0 0 0 0 0 0 0 0 127 0" result="hardAlpha"/>
<feOffset dy="8.51943"/>
<feGaussianBlur stdDeviation="4.25972"/>
<feComposite in2="hardAlpha" operator="out"/>
<feColorMatrix type="matrix" values="0 0 0 0 0 0 0 0 0 0 0 0 0 0 0 0 0 0 0.5 0"/>
<feBlend mode="normal" in2="BackgroundImageFix" result="effect1_dropShadow_923_32857"/>
<feBlend mode="normal" in="SourceGraphic" in2="effect1_dropShadow_923_32857" result="shape"/>
</filter>
<filter id="filter2_f_923_32857" x="-6.3748" y="-7.28887" width="524.515" height="525.812" filterUnits="userSpaceOnUse" color-interpolation-filters="sRGB">
<feFlood flood-opacity="0" result="BackgroundImageFix"/>
<feBlend mode="normal" in="SourceGraphic" in2="BackgroundImageFix" result="shape"/>
<feGaussianBlur stdDeviation="8.51943" result="effect1_foregroundBlur_923_32857"/>
</filter>
<clipPath id="clip0_923_32857">
<rect width="511.998" height="511.998" rx="108.623" fill="white"/>
</clipPath>
</defs>
</svg>
